X: 1
T: Leitrim Fancy, The
M: 6/8
L: 1/8
R: jig
K: Dmaj
GBG FAF|E2B BAB|GBG FAF|D2A AFD|
GBG FAF|E2B BAB|G2B dBG|ABG FED:|
G2B dBd|edB dBA|G2B dBG|ABG FED|
G2B dBd|edB def|gfe dBG|ABG FED:|
